X:1
T:Miss Hunter's Hornpipe
T:Miss Hunter's Hornpipe
T:James Hill
C:James Hill
L:1/8
M:2/2
K:D
V:1 treble 
V:1
 Ac | dfed dcBA | GFAF DFAc | dcdf gfed | e^def e2 Ac | dfed cBAG | GFAF DFAd | ceAg fedc | %8
 e2 d2 d2 :: fg | a^gaf gfge | fdge dcBA | FDCD FAdf | e^def e2 fg | a^gaf gfge | fdge dcBA | %16
 Bbag fedc | e2 d2 d2 :| %18

